icons/happy.svg

<svg width="48" height="48" viewBox="0 0 48 48" fill="none" xmlns="http://www.w3.org/2000/svg">
<path fill-rule="evenodd" clip-rule="evenodd" d="M24 40C32.8366 40 40 32.8366 40 24C40 15.1634 32.8366 8 24 8C15.1634 8 8 15.1634 8 24C8 32.8366 15.1634 40 24 40ZM24 42C33.9411 42 42 33.9411 42 24C42 14.0589 33.9411 6 24 6C14.0589 6 6 14.0589 6 24C6 33.9411 14.0589 42 24 42Z" fill="black"/>
<path fill-rule="evenodd" clip-rule="evenodd" d="M16.6949 28C18.25 31.8319 21.1142 34 24 34C26.8858 34 29.75 31.8319 31.3051 28H16.6949ZM24 36C19.9619 36 16.4618 32.9521 14.7419 28.5C14.7254 28.4572 14.709 28.4143 14.6928 28.3713C14.2445 27.18 15.1998 26 16.4727 26H31.5273C32.8002 26 33.7555 27.18 33.3072 28.3713C33.291 28.4143 33.2746 28.4572 33.2581 28.5C31.5382 32.9521 28.0381 36 24 36Z" fill="black"/>
<path d="M21.3023 22.4421C21.4323 22.0844 21.3934 21.6474 21.2857 21.2489C21.1734 20.8333 20.9666 20.3855 20.6753 19.9696C20.0947 19.1404 19.1318 18.3781 17.831 18.3234C16.4842 18.2669 15.4778 19.1216 14.8578 20.0288C14.5433 20.4891 14.3095 20.987 14.1629 21.4451C14.0202 21.8907 13.9445 22.3469 13.9944 22.7115C14.0175 22.8807 14.1254 23.0264 14.2804 23.0978C14.4355 23.1693 14.6163 23.1567 14.7599 23.0645C15.1593 22.8081 15.579 22.4572 15.9668 22.133C16.1434 21.9853 16.3135 21.8432 16.4719 21.7181C17.0342 21.274 17.4717 21.0209 17.8345 21.0032C18.1791 20.9863 18.5774 21.1839 19.0791 21.5592C19.2585 21.6935 19.4326 21.8355 19.6129 21.9827C19.6772 22.0351 19.7422 22.0882 19.8085 22.1417C20.0523 22.3386 20.3119 22.5409 20.5736 22.6991C20.7016 22.7766 20.8576 22.7926 20.9987 22.7429C21.1398 22.6931 21.2512 22.5827 21.3023 22.4421Z" fill="black"/>
<path d="M26.6132 22.4421C26.4832 22.0844 26.5221 21.6474 26.6298 21.2489C26.7421 20.8333 26.9489 20.3855 27.2402 19.9696C27.8208 19.1404 28.7838 18.3781 30.0845 18.3234C31.4313 18.2669 32.4377 19.1216 33.0577 20.0288C33.3723 20.4891 33.606 20.987 33.7527 21.4451C33.8954 21.8907 33.971 22.3469 33.9211 22.7115C33.898 22.8807 33.7901 23.0264 33.6351 23.0978C33.4801 23.1693 33.2993 23.1567 33.1556 23.0645C32.7563 22.8081 32.3365 22.4572 31.9487 22.133C31.7721 21.9853 31.602 21.8432 31.4436 21.7181C30.8813 21.274 30.4438 21.0209 30.081 21.0032C29.7365 20.9863 29.3381 21.1839 28.8365 21.5592C28.6571 21.6935 28.483 21.8355 28.3026 21.9827C28.2384 22.0351 28.1733 22.0882 28.107 22.1417C27.8632 22.3386 27.6036 22.5409 27.342 22.6991C27.2139 22.7766 27.058 22.7926 26.9169 22.7429C26.7758 22.6931 26.6644 22.5827 26.6132 22.4421Z" fill="black"/>
</svg>

<svg
  xmlns="http://www.w3.org/2000/svg"
  width="24"
  height="24"
  viewBox="0 0 24 24"
  fill="none"
  stroke="currentColor"
  stroke-width="2"
  stroke-linecap="round"
  stroke-linejoin="round"
>
  <path
    fill-rule="evenodd"
    d="M24 40c8.837 0 16-7.163 16-16S32.837 8 24 8 8 15.163 8 24s7.163 16 16 16m0 2c9.941 0 18-8.059 18-18S33.941 6 24 6 6 14.059 6 24s8.059 18 18 18"
    clip-rule="evenodd"
  />
  <path
    fill-rule="evenodd"
    d="M16.695 28c1.555 3.832 4.42 6 7.305 6 2.886 0 5.75-2.168 7.305-6zM24 36c-4.038 0-7.538-3.048-9.258-7.5l-.05-.129C14.246 27.18 15.2 26 16.473 26h15.055c1.273 0 2.228 1.18 1.78 2.371l-.049.129C31.538 32.952 28.038 36 24 36"
    clip-rule="evenodd"
  />
  <path d="M21.302 22.442c.13-.358.091-.795-.016-1.193a4.2 4.2 0 0 0-.61-1.28c-.581-.829-1.544-1.59-2.845-1.646-1.347-.056-2.353.799-2.973 1.706a5.6 5.6 0 0 0-.695 1.416c-.143.446-.219.902-.169 1.267a.5.5 0 0 0 .766.352c.4-.256.819-.607 1.207-.931.176-.148.347-.29.505-.415.562-.444 1-.697 1.362-.715.345-.017.743.18 1.245.556.18.134.354.276.534.424l.195.159c.244.197.504.399.766.557a.5.5 0 0 0 .728-.257" />
  <path d="M26.613 22.442c-.13-.358-.09-.795.017-1.193.112-.416.319-.863.61-1.28.58-.829 1.544-1.59 2.845-1.646 1.346-.056 2.353.799 2.973 1.706.314.46.548.958.695 1.416.142.446.218.902.168 1.267a.5.5 0 0 1-.765.352c-.4-.256-.82-.607-1.207-.931-.177-.148-.347-.29-.505-.415-.563-.444-1-.697-1.363-.715-.344-.017-.743.18-1.244.556-.18.134-.354.276-.534.424l-.196.159c-.244.197-.503.399-.765.557a.5.5 0 0 1-.729-.257" />
</svg>
